X: 1
T: Prince William
%D:1731
R: march
B: Walsh "Complete Country Dancing Master", 1731
B: Wright's "Compleat Collection of celebrated country Dances" (1740, p. 17)
B: John Walsh – "Complete Country Dancing-Master, Volume the Fourth" B: (London, 1740, No. 6)
S: Fiddle Hell Online 2021-04-15 Rodney Miller jam handout
Z: 2021 John Chambers <jc:trillian.mit.edu>
M: C|
L: 1/8
K: A
E2 \
| "A"A4   c2BA | "E"B4 E2d2 | "A"c4  "E"B4    | "A"AGAB A2B2 ||
| "A"c2A2 E2c2 | "E"B6 A2   |  G2e2 "B7"F2^d2 | "E"e6 :|
|: cd \
| "A"e4   "D"f2e2 | "(E)"d3c    B2e2 | "D"d2c2    B2A2 | "E"G2B2 E4 ||
| "A"A2GA "E"B2AB |  "A"c2Bc "D"d2e2 | "A"c2BA "E"E2G2 | "A"A6 :|
